!!!COM:	Bach, Johann Sebastian
!!!CDT:	1685/02/21/-1750/07/28/
!!!OTL@@DE:	Aus tiefer Not schrei ich zu dir
!!!SCT:	BWV 38/6
!!!PC#:	10
!!!AGN:	chorale
**kern	**kern	**kern	**kern
*ICvox	*ICvox	*ICvox	*ICvox
*Ibass	*Itenor	*Ialto	*Isoprn
*I"Bass	*I"Tenor	*I"Alto	*I"Soprano
*>[A,A,B]	*>[A,A,B]	*>[A,A,B]	*>[A,A,B]
*>norep[A,B]	*>norep[A,B]	*>norep[A,B]	*>norep[A,B]
*>A	*>A	*>A	*>A
*clefF4	*clefGv2	*clefG2	*clefG2
*k[]	*k[]	*k[]	*k[]
*a:	*a:	*a:	*a:
*M4/4	*M4/4	*M4/4	*M4/4
*met(c)	*met(c)	*met(c)	*met(c)
*MM100	*MM100	*MM100	*MM100
=1-	=1-	=1-	=1-
2D	2G#	2e	2b
4C	4A	4e	4e
4BB	4d	4g#	4b
=2	=2	=2	=2
4AA	4e	4a	4cc
4BB	4d	8gnXL	8bL
.	.	8f#J	8aJ
8CL	8eL	4e	4g
8BBJ	8dJ	.	.
4AA	4c	4f#	4a
=3	=3	=3	=3
2E;	2B;	2g#;	2b;
2E	2e	2g#	2b
=4	=4	=4	=4
4A	4e	4a	4cc
8GL	4f	4b	4dd
8FJ	.	.	.
4E	4g	4cc	8ccL
.	.	.	8bJ
4F	4c	4f	4a
=5	=5	=5	=5
4C	8cL	4e	4g
.	8BJ	.	.
4D	4A	8dL	4f
.	.	8cJ	.
2E;	2G#;	2B;	2e;
=6:|!	=6:|!	=6:|!	=6:|!
*>B	*>B	*>B	*>B
2c	2A	2e	2a
4B	4B	4d	4gnX
4A	4c	8eL	4cc
.	.	8f#J	.
=7	=7	=7	=7
4G	4d	4g	4b
8FnXL	8dL	4a	4a
8EJ	8eJ	.	.
4D	4f	8bL	8ddL
.	.	8aJ	8ccJ
4E	4B	4g#	4b
=8	=8	=8	=8
2AA;	2c;	2e;	2a;
2A	2e	2a	2cc
=9	=9	=9	=9
4E	4e	4g	4b
8DL	4e	4g	4cc
8CJ	.	.	.
4BB	4d	8gL	4dd
.	.	8fJ	.
4C	4c	4e	4g
=10	=10	=10	=10
4D	8F#	4d	4b
.	4G	.	.
4D	.	4c	4a
.	8F#	.	.
2GG;	2G;	2B;	2g;
=11	=11	=11	=11
2C	2G	2e	2g
4AA	4A	4e	4cc
4E	4G#	8eL	4b
.	.	8dJ	.
=12	=12	=12	=12
4F	4A	4c	4a
4C	4G	4c	4e
4BB-	4G	[2d	4g
4AA	4A	.	4f
=13	=13	=13	=13
4GG#	4B	4d]	1e;
4AA	4A	4c	.
2EE;	2G#X;	2B;	.
==	==	==	==
*-	*-	*-	*-
!!!hum2abc: -Q ''
!!!title: @{PC#}. @{OTL@@DE}
!!!YOR1: 371 vierstimmige Choralges&auml;nge von Johann Sebastian Bach, 
!!!YOR2: 4th ed. by Alfred D&ouml;rffel (Leipzig: Breitkopf und H&auml;rtel, 
!!!YOR2: c.1875). 178 pp. Plate "V.A.10".  reprint: J.S. Bach, 371 Four-Part 
!!!YOR4: Chorales (New York: Associated Music Publishers, Inc., c.1940).
!!!SMS: B&H, 4th ed, Alfred D&ouml;rffel, c.1875, plate V.A.10
!!!EED:  Craig Stuart Sapp
!!!EEV:  2009/05/22
